media/fonts/icomoon.svg

<?xml version="1.0" standalone="no"?>
<!DOCTYPE svg PUBLIC "-//W3C//DTD SVG 1.1//EN" "http://www.w3.org/Graphics/SVG/1.1/DTD/svg11.dtd" >
<svg xmlns="http://www.w3.org/2000/svg">
<metadata>Generated by IcoMoon</metadata>
<defs>
<font id="icomoon" horiz-adv-x="512">
<font-face units-per-em="512" ascent="480" descent="-32" />
<missing-glyph horiz-adv-x="512" />
<glyph unicode="&#x20;" d="" horiz-adv-x="256" />
<glyph unicode="&#xe000;" d="M224 128l128-128 128 128h-96v352h-64v-352zM192 320h96l-128 128-128-128h96v-352h64z" />
<glyph unicode="&#xe001;" d="M320 448l64-64-224-224 32-32 224 224 64-64v160zM352 64h-256v256h128l64 64h-256v-384h384v256l-64-64z" />
<glyph unicode="&#xe005;" d="M512 384h-512l255.632-320 256.368 320z" />
<glyph unicode="&#xe00d;" d="M128 448h256v-64h-256zM480 352h-448c-17.6 0-32-14.4-32-32v-160c0-17.6 14.398-32 32-32h96v-128h256v128h96c17.6 0 32 14.4 32 32v160c0 17.6-14.4 32-32 32zM352 32h-192v160h192v-160zM487.2 304c0-12.813-10.387-23.2-23.199-23.2-12.813 0-23.201 10.387-23.201 23.2s10.388 23.2 23.201 23.2c12.813 0 23.199-10.387 23.199-23.2z" />
<glyph unicode="&#xe00e;" d="M416 352h-320l-96-128h512zM0 96h512v96h-512v-96zM448 160h32v-32h-32v32z" />
<glyph unicode="&#xe00f;" d="M288 158.078v14.768c19.129 16.6 32 47.621 32 83.154 0 53.020-28.653 96-64 96-35.346 0-64-42.98-64-96 0-35.535 12.872-66.558 32.003-83.156v-14.766c-73.031-8.895-128-47.634-128-94.078h319.997c0 46.444-54.969 85.184-128 94.078zM160.84 175.194c-13.354 8.158-30.188 13.814-48.839 15.902v7.341c9.562 8.301 16 23.799 16 41.563 0 26.51-14.327 48-32 48s-32-21.49-32-48c0-17.764 6.438-33.262 16-41.563v-7.327c-45.402-5.079-80-31.397-80-63.109h89.713c17.021 19.613 41.61 35.942 71.126 47.193zM432 191.11v7.327c9.563 8.301 16 23.799 16 41.563 0 26.51-14.327 48-32 48s-32-21.49-32-48c0-17.764 6.438-33.262 16-41.563v-7.341c-18.65-2.088-35.485-7.744-48.84-15.902 29.516-11.251 54.104-27.58 71.127-47.193h89.713c0 31.712-34.597 58.030-80 63.109z" />
<glyph unicode="&#xe010;" d="M256 480c-141.385 0-256-114.615-256-256s114.615-256 256-256 256 114.615 256 256-114.615 256-256 256zM392.897 136.884c6.844-6.844 6.844-18.044 0-24.89l-24.891-24.891c-6.846-6.844-18.046-6.844-24.89 0l-87.116 87.117-87.115-87.116c-6.845-6.844-18.046-6.844-24.89 0l-24.891 24.891c-6.845 6.846-6.845 18.046 0 24.89l87.116 87.115-87.116 87.115c-6.845 6.845-6.845 18.046 0 24.89l24.891 24.891c6.844 6.845 18.045 6.845 24.89 0l87.115-87.116 87.116 87.116c6.844 6.845 18.044 6.845 24.89 0l24.891-24.891c6.844-6.844 6.844-18.045 0-24.89l-87.116-87.115 87.116-87.116z" />
<glyph unicode="&#xe011;" d="M0 416l192-192v-192l128 32v160l192 192z" />
<glyph unicode="&#xe012;" d="M426.672 480h-341.33c-46.936 0-85.342-38.407-85.342-85.344v-341.313c0-46.969 38.406-85.343 85.342-85.343l341.33 0.001c46.938 0 85.328 38.373 85.328 85.344v341.311c0 46.937-38.391 85.344-85.328 85.344zM435.296 224h-83.296v-224h-96v224h-46.263v73.282h46.263v47.593c0 64.671 27.896 103.125 103.935 103.125h87.622v-79.285h-71.565c-21.241 0.035-23.876-11.076-23.876-31.756l-0.116-39.677h96l-12.704-73.282z" />
<glyph unicode="&#xe014;" d="M426.655 480h-341.31c-46.94 0-85.345-38.392-85.345-85.329v-341.328c0-46.938 38.405-85.343 85.345-85.343h341.311c46.969 0 85.344 38.405 85.344 85.343v341.328c0 46.937-38.375 85.329-85.345 85.329zM128 352h256c4.569 0 9.002-0.981 13.072-2.831l-141.072-164.584-141.072 164.585c4.070 1.848 8.503 2.83 13.072 2.83zM96 128v192c0 0.67 0.028 1.336 0.070 2l93.832-109.47-92.799-92.8c-0.722 2.669-1.103 5.443-1.103 8.27zM384 96h-256c-2.827 0-5.601 0.381-8.27 1.103l91.059 91.059 45.211-52.748 45.212 52.747 91.058-91.059c-2.67-0.721-5.443-1.102-8.27-1.102zM416 128c0-2.827-0.381-5.6-1.103-8.27l-92.799 92.799 93.832 109.471c0.042-0.664 0.070-1.33 0.070-2v-192z" />
<glyph unicode="&#xe015;" d="M426.671 480h-341.328c-46.937 0-85.343-38.405-85.343-85.345v-341.311c0-46.969 38.406-85.344 85.343-85.344h341.328c46.938 0 85.329 38.375 85.329 85.345v341.31c0 46.94-38.391 85.345-85.329 85.345zM419.026 309.083c0.164-3.671 0.245-7.364 0.245-11.074 0-113.107-84.608-243.534-239.329-243.534-47.502 0-91.717 14.174-128.943 38.459 6.58-0.794 13.276-1.197 20.065-1.197 39.411 0 75.679 13.685 104.467 36.641-36.808 0.69-67.872 25.438-78.577 59.441 5.137-1 10.406-1.537 15.826-1.537 7.672 0 15.103 1.048 22.16 3.004-38.48 7.866-67.475 42.458-67.475 83.928 0 0.361 0 0.719 0.008 1.076 11.34-6.41 24.312-10.26 38.1-10.705-22.571 15.349-37.421 41.546-37.421 71.244 0 15.685 4.147 30.389 11.389 43.029 41.487-51.785 103.468-85.86 173.377-89.431-1.435 6.266-2.179 12.798-2.179 19.507 0 47.269 37.663 85.59 84.115 85.59 24.195 0 46.059-10.393 61.401-27.029 19.16 3.838 37.162 10.96 53.416 20.771-6.281-19.988-19.617-36.761-36.983-47.355 17.013 2.069 33.226 6.67 48.31 13.477-11.273-17.162-25.535-32.238-41.972-44.305z" />
<glyph unicode="&#xe016;" d="M496 448h-112c-26.4 0-63.273-15.273-81.941-33.941l-188.118-188.118c-18.667-18.667-18.667-49.214 0-67.882l140.118-140.117c18.667-18.668 49.214-18.668 67.882 0l188.117 188.117c18.669 18.668 33.942 55.541 33.942 81.941v112c0 26.4-21.6 48-48 48zM432 288c-26.51 0-48 21.49-48 48s21.49 48 48 48 48-21.49 48-48-21.49-48-48-48zM43.313 180.687l171.189-171.189c-18.132-9.58-41.231-6.769-56.443 8.444l-140.118 140.117c-18.667 18.668-18.667 49.215 0 67.882l188.118 188.118c18.668 18.668 55.541 33.941 81.941 33.941l-244.687-244.686c-6.222-6.223-6.222-16.404 0-22.627z" horiz-adv-x="544" />
<glyph unicode="&#xe017;" d="M463.906 480h-144.281c-26.453 0-63.398-15.303-82.102-34.007l-223.495-223.495c-18.704-18.704-18.704-49.312 0-68.016l172.455-172.453c18.704-18.705 49.311-18.705 68.015 0l223.495 223.494c18.704 18.705 34.007 55.651 34.007 82.102v144.281c0 26.452-21.643 48.094-48.094 48.094zM400 320c-26.51 0-48 21.49-48 48s21.49 48 48 48 48-21.49 48-48-21.49-48-48-48z" />
<glyph unicode="&#xe600;" d="M426 480h-340c-47.3 0-86-38.7-86-86v-340c0-47.3 38.7-86 86-86h340c47.3 0 86 38.7 86 86v340c0 47.3-38.7 86-86 86zM192 64h-64v224h64v-224zM160 320c-17.673 0-32 14.327-32 32s14.327 32 32 32 32-14.327 32-32-14.327-32-32-32zM416 64h-64v128c0 17.673-14.327 32-32 32s-32-14.327-32-32v-128h-64v224h64v-39.736c13.199 18.132 33.376 39.736 56 39.736 39.765 0 72-35.817 72-80v-144z" />
</font></defs></svg>

<?xml version="1.0" standalone="no"?>
<!DOCTYPE svg PUBLIC "-//W3C//DTD SVG 1.1//EN" "http://www.w3.org/Graphics/SVG/1.1/DTD/svg11.dtd" >
<svg xmlns="http://www.w3.org/2000/svg">
<metadata>
This is a custom SVG font generated by IcoMoon.
<iconset grid="16"></iconset>
</metadata>
<defs>
<font id="icomoon" horiz-adv-x="512" >
<font-face units-per-em="512" ascent="480" descent="-32" />
<missing-glyph horiz-adv-x="512" />
<glyph class="hidden" unicode="&#xf000;" d="M0,480L 512 -32L0 -32 z" horiz-adv-x="0" />
<glyph unicode="&#xe000;" d="M 224,128L 352,0L 480,128L 384,128L 384,480L 320,480L 320,128 	zM 192,320L 288,320L 160,448L 32,320L 128,320L 128-32L 192-32 	z"  />
<glyph unicode="&#xe005;" d="M 512,384l-512,0 l 255.632-320L 512,384z"  />
<glyph unicode="&#xe00d;" d="M 128,448L 384,448L 384,384L 128,384zM 480,352L 32,352 C 14.4,352,0,337.6,0,320l0-160 c0-17.6, 14.398-32, 32-32l 96,0 l0-128 l 256,0 L 384,128 l 96,0 c 17.6,0, 32,14.4, 32,32L 512,320 
		C 512,337.6, 497.6,352, 480,352z M 352,32L 160,32 L 160,192 l 192,0 L 352,32 z M 487.2,304c0-12.813-10.387-23.2-23.199-23.2
		c-12.813,0-23.201,10.387-23.201,23.2s 10.388,23.2, 23.201,23.2C 476.814,327.2, 487.2,316.813, 487.2,304z"  />
<glyph unicode="&#xe00e;" d="M 416,352L 96,352L0,224L 512,224 	zM0,96l 512,0 l0,96 L0,192 L0,96 z M 448,160l 32,0 l0-32 l-32,0 L 448,160 z"  />
<glyph unicode="&#xe00f;" d="M 288,158.078l0,14.768 c 19.129,16.6, 32,47.621, 32,83.154c0,53.020-28.653,96-64,96c-35.346,0-64-42.98-64-96
		c0-35.535, 12.872-66.558, 32.003-83.156l0-14.766 c-73.031-8.895-128-47.634-128-94.078L 416,64 C 416,110.444, 361.031,149.184, 288,158.078zM 160.84,175.194c-13.354,8.158-30.188,13.814-48.839,15.902l0,7.341 c 9.562,8.301, 16,23.799, 16,41.563
		c0,26.51-14.327,48-32,48s-32-21.49-32-48c0-17.764, 6.438-33.262, 16-41.563l0-7.327 c-45.402-5.079-80-31.397-80-63.109l 89.713,0 
		C 106.735,147.614, 131.324,163.943, 160.84,175.194zM 432,191.11l0,7.327 c 9.563,8.301, 16,23.799, 16,41.563c0,26.51-14.327,48-32,48s-32-21.49-32-48
		c0-17.764, 6.438-33.262, 16-41.563l0-7.341 c-18.65-2.088-35.485-7.744-48.84-15.902c 29.516-11.251, 54.104-27.58, 71.127-47.193L 512,128.001 
		C 512,159.713, 477.403,186.031, 432,191.11z"  />
<glyph unicode="&#xe010;" d="M 256,480C 114.615,480,0,365.385,0,224s 114.615-256, 256-256s 256,114.615, 256,256S 397.385,480, 256,480z M 392.897,136.884
	c 6.844-6.844, 6.844-18.044,0-24.89l-24.891-24.891c-6.846-6.844-18.046-6.844-24.89,0L 256,174.22l-87.115-87.116
	c-6.845-6.844-18.046-6.844-24.89,0l-24.891,24.891c-6.845,6.846-6.845,18.046,0,24.89L 206.22,224l-87.116,87.115
	c-6.845,6.845-6.845,18.046,0,24.89l 24.891,24.891c 6.844,6.845, 18.045,6.845, 24.89,0L 256,273.78l 87.116,87.116
	c 6.844,6.845, 18.044,6.845, 24.89,0l 24.891-24.891c 6.844-6.844, 6.844-18.045,0-24.89L 305.781,224L 392.897,136.884z"  />
<glyph unicode="&#xe011;" d="M0,416L 192,224L 192,32L 320,64L 320,224L 512,416 z"  />
<glyph unicode="&#xe012;" d="M 426.672,480L 85.342,480 C 38.406,480,0,441.593,0,394.656l0-341.313 C0,6.374, 38.406-32, 85.342-32l 341.33,0.001
	c 46.938,0, 85.328,38.373, 85.328,85.344L 512,394.656 C 512,441.593, 473.609,480, 426.672,480z M 435.296,224L 352,224 l0-224 l-96,0 L 256,224 l-46.263,0 l0,73.282 L 256,297.282 
	l0,47.593 C 256,409.546, 283.896,448, 359.935,448l 87.622,0 l0-79.285 l-71.565,0 c-21.241,0.035-23.876-11.076-23.876-31.756L 352,297.282l 96,0 
	L 435.296,224z"  />
<glyph unicode="&#xe014;" d="M 426.655,480L 85.345,480 C 38.405,480,0,441.608,0,394.671l0-341.328 C0,6.405, 38.405-32, 85.345-32l 341.311,0 
	C 473.625-32, 512,6.405, 512,53.343L 512,394.671 C 512,441.608, 473.625,480, 426.655,480z M 128,352l 256,0 c 4.569,0, 9.002-0.981, 13.072-2.831
	L 256,184.585L 114.928,349.17C 118.998,351.018, 123.431,352, 128,352z M 96,128L 96,320 c0,0.67, 0.028,1.336, 0.070,2l 93.832-109.47
	L 97.103,119.73C 96.381,122.399, 96,125.173, 96,128z M 384,96L 128,96 c-2.827,0-5.601,0.381-8.27,1.103l 91.059,91.059L 256,135.414
	l 45.212,52.747l 91.058-91.059C 389.6,96.381, 386.827,96, 384,96z M 416,128c0-2.827-0.381-5.6-1.103-8.27l-92.799,92.799L 415.93,322
	c 0.042-0.664, 0.070-1.33, 0.070-2L 416,128 z"  />
<glyph unicode="&#xe015;" d="M 426.671,480L 85.343,480 C 38.406,480,0,441.595,0,394.655l0-341.311 C0,6.375, 38.406-32, 85.343-32l 341.328,0 
	C 473.609-32, 512,6.375, 512,53.345L 512,394.655 C 512,441.595, 473.609,480, 426.671,480z M 419.026,309.083
	c 0.164-3.671, 0.245-7.364, 0.245-11.074c0-113.107-84.608-243.534-239.329-243.534c-47.502,0-91.717,14.174-128.943,38.459
	c 6.58-0.794, 13.276-1.197, 20.065-1.197c 39.411,0, 75.679,13.685, 104.467,36.641c-36.808,0.69-67.872,25.438-78.577,59.441
	c 5.137-1, 10.406-1.537, 15.826-1.537c 7.672,0, 15.103,1.048, 22.16,3.004c-38.48,7.866-67.475,42.458-67.475,83.928
	c0,0.361,0,0.719, 0.008,1.076c 11.34-6.41, 24.312-10.26, 38.1-10.705c-22.571,15.349-37.421,41.546-37.421,71.244
	c0,15.685, 4.147,30.389, 11.389,43.029c 41.487-51.785, 103.468-85.86, 173.377-89.431c-1.435,6.266-2.179,12.798-2.179,19.507
	c0,47.269, 37.663,85.59, 84.115,85.59c 24.195,0, 46.059-10.393, 61.401-27.029c 19.16,3.838, 37.162,10.96, 53.416,20.771
	c-6.281-19.988-19.617-36.761-36.983-47.355c 17.013,2.069, 33.226,6.67, 48.31,13.477C 449.725,336.226, 435.463,321.15, 419.026,309.083
	z"  />
<glyph unicode="&#xe016;" d="M 496,448L 384,448 c-26.4,0-63.273-15.273-81.941-33.941L 113.941,225.941c-18.667-18.667-18.667-49.214,0-67.882l 140.118-140.117
	c 18.667-18.668, 49.214-18.668, 67.882,0l 188.117,188.117C 528.727,224.727, 544,261.6, 544,288L 544,400 C 544,426.4, 522.4,448, 496,448z M 432,288
	c-26.51,0-48,21.49-48,48s 21.49,48, 48,48s 48-21.49, 48-48S 458.51,288, 432,288zM 43.313,180.687 L 214.502,9.498 C 196.37-0.082 173.271,2.729 158.059,17.942 L 17.941,158.059 C -0.726,176.727 -0.726,207.274 17.941,225.941 L 206.059,414.059 C 224.727,432.727 261.6,448 288,448 L 43.313,203.314 C 37.091,197.091 37.091,186.91 43.313,180.687 Z" horiz-adv-x="544"  />
<glyph unicode="&#xe017;" d="M 463.906,480L 319.625,480 c-26.453,0-63.398-15.303-82.102-34.007L 14.028,222.498c-18.704-18.704-18.704-49.312,0-68.016
	l 172.455-172.453c 18.704-18.705, 49.311-18.705, 68.015,0l 223.495,223.494C 496.697,224.228, 512,261.174, 512,287.625L 512,431.906 
	C 512,458.358, 490.357,480, 463.906,480z M 400,320c-26.51,0-48,21.49-48,48s 21.49,48, 48,48s 48-21.49, 48-48S 426.51,320, 400,320z"  />
<glyph unicode="&#xe001;" d="M 320,448L 384,384L 160,160L 192,128L 416,352L 480,288L 480,448 	zM 352,64L 96,64L 96,320L 224,320L 288,384L 32,384L 32,0L 416,0L 416,256L 352,192 	z"  />
<glyph unicode="&#x20;" horiz-adv-x="256" />
</font></defs></svg>
